images/unfold_about.svg

<svg width="80" height="20" viewBox="0 0 80 20" fill="none" xmlns="http://www.w3.org/2000/svg">
<path d="M1.079 3.9H5.213C6.201 3.9 7.072 4.09067 7.826 4.472C8.58867 4.84467 9.178 5.37333 9.594 6.058C10.0187 6.74267 10.231 7.54 10.231 8.45C10.231 9.36 10.0187 10.1573 9.594 10.842C9.178 11.5267 8.58867 12.0597 7.826 12.441C7.072 12.8137 6.201 13 5.213 13H1.079V3.9ZM5.109 11.271C6.019 11.271 6.74267 11.0197 7.28 10.517C7.826 10.0057 8.099 9.31667 8.099 8.45C8.099 7.58333 7.826 6.89867 7.28 6.396C6.74267 5.88467 6.019 5.629 5.109 5.629H3.185V11.271H5.109ZM18.5272 9.529C18.5272 9.555 18.5142 9.737 18.4882 10.075H13.1972C13.2926 10.5083 13.5179 10.8507 13.8732 11.102C14.2286 11.3533 14.6706 11.479 15.1992 11.479C15.5632 11.479 15.8839 11.427 16.1612 11.323C16.4472 11.2103 16.7116 11.037 16.9542 10.803L18.0332 11.973C17.3746 12.727 16.4126 13.104 15.1472 13.104C14.3586 13.104 13.6609 12.9523 13.0542 12.649C12.4476 12.337 11.9796 11.908 11.6502 11.362C11.3209 10.816 11.1562 10.1963 11.1562 9.503C11.1562 8.81833 11.3166 8.203 11.6372 7.657C11.9666 7.10233 12.4129 6.67333 12.9762 6.37C13.5482 6.058 14.1852 5.902 14.8872 5.902C15.5719 5.902 16.1916 6.04933 16.7462 6.344C17.3009 6.63867 17.7342 7.06333 18.0462 7.618C18.3669 8.164 18.5272 8.801 18.5272 9.529ZM14.9002 7.436C14.4409 7.436 14.0552 7.566 13.7432 7.826C13.4312 8.086 13.2406 8.44133 13.1712 8.892H16.6162C16.5469 8.45 16.3562 8.099 16.0442 7.839C15.7322 7.57033 15.3509 7.436 14.9002 7.436ZM15.4202 3.237H17.6042L15.2512 5.109H13.6652L15.4202 3.237ZM21.8144 6.929C22.0571 6.591 22.3821 6.33533 22.7894 6.162C23.2054 5.98867 23.6821 5.902 24.2194 5.902V7.774C23.9941 7.75667 23.8424 7.748 23.7644 7.748C23.1837 7.748 22.7287 7.91267 22.3994 8.242C22.0701 8.56267 21.9054 9.048 21.9054 9.698V13H19.8774V6.006H21.8144V6.929ZM28.6898 13.104C27.9531 13.104 27.2901 12.9523 26.7008 12.649C26.1201 12.337 25.6651 11.908 25.3358 11.362C25.0064 10.816 24.8418 10.1963 24.8418 9.503C24.8418 8.80967 25.0064 8.19 25.3358 7.644C25.6651 7.098 26.1201 6.67333 26.7008 6.37C27.2901 6.058 27.9531 5.902 28.6898 5.902C29.4264 5.902 30.0851 6.058 30.6658 6.37C31.2464 6.67333 31.7014 7.098 32.0308 7.644C32.3601 8.19 32.5248 8.80967 32.5248 9.503C32.5248 10.1963 32.3601 10.816 32.0308 11.362C31.7014 11.908 31.2464 12.337 30.6658 12.649C30.0851 12.9523 29.4264 13.104 28.6898 13.104ZM28.6898 11.44C29.2098 11.44 29.6344 11.2667 29.9638 10.92C30.3018 10.5647 30.4708 10.0923 30.4708 9.503C30.4708 8.91367 30.3018 8.44567 29.9638 8.099C29.6344 7.74367 29.2098 7.566 28.6898 7.566C28.1698 7.566 27.7408 7.74367 27.4028 8.099C27.0648 8.44567 26.8958 8.91367 26.8958 9.503C26.8958 10.0923 27.0648 10.5647 27.4028 10.92C27.7408 11.2667 28.1698 11.44 28.6898 11.44ZM40.9263 6.006V13H39.0023V12.168C38.7337 12.4713 38.413 12.7053 38.0403 12.87C37.6677 13.026 37.2647 13.104 36.8313 13.104C35.9127 13.104 35.1847 12.8397 34.6473 12.311C34.11 11.7823 33.8413 10.998 33.8413 9.958V6.006H35.8693V9.659C35.8693 10.7857 36.3417 11.349 37.2863 11.349C37.7717 11.349 38.1617 11.193 38.4563 10.881C38.751 10.5603 38.8983 10.088 38.8983 9.464V6.006H40.9263ZM42.8051 3.354H44.8331V13H42.8051V3.354ZM53.5663 9.529C53.5663 9.555 53.5533 9.737 53.5273 10.075H48.2363C48.3316 10.5083 48.557 10.8507 48.9123 11.102C49.2676 11.3533 49.7096 11.479 50.2383 11.479C50.6023 11.479 50.923 11.427 51.2003 11.323C51.4863 11.2103 51.7506 11.037 51.9933 10.803L53.0723 11.973C52.4136 12.727 51.4516 13.104 50.1863 13.104C49.3976 13.104 48.7 12.9523 48.0933 12.649C47.4866 12.337 47.0186 11.908 46.6893 11.362C46.36 10.816 46.1953 10.1963 46.1953 9.503C46.1953 8.81833 46.3556 8.203 46.6763 7.657C47.0056 7.10233 47.452 6.67333 48.0153 6.37C48.5873 6.058 49.2243 5.902 49.9263 5.902C50.611 5.902 51.2306 6.04933 51.7853 6.344C52.34 6.63867 52.7733 7.06333 53.0853 7.618C53.406 8.164 53.5663 8.801 53.5663 9.529ZM49.9393 7.436C49.48 7.436 49.0943 7.566 48.7823 7.826C48.4703 8.086 48.2796 8.44133 48.2103 8.892H51.6553C51.586 8.45 51.3953 8.099 51.0833 7.839C50.7713 7.57033 50.39 7.436 49.9393 7.436ZM56.8535 6.929C57.0961 6.591 57.4211 6.33533 57.8285 6.162C58.2445 5.98867 58.7211 5.902 59.2585 5.902V7.774C59.0331 7.75667 58.8815 7.748 58.8035 7.748C58.2228 7.748 57.7678 7.91267 57.4385 8.242C57.1091 8.56267 56.9445 9.048 56.9445 9.698V13H54.9165V6.006H56.8535V6.929Z" fill="#00C2CB"/>
<path d="M72.8851 7.25L69.8679 11.4351L66.8507 7.25H72.8851Z" stroke="#00C2CB" stroke-width="3"/>
</svg>

<svg xmlns="http://www.w3.org/2000/svg" width="80" height="20" fill="none"  xmlns:v="https://vecta.io/nano"><path d="M1.08 3.9h4.134c.988 0 1.86.19 2.613.572a4.14 4.14 0 0 1 1.768 1.586c.425.685.637 1.482.637 2.392s-.212 1.707-.637 2.392c-.416.685-1.005 1.218-1.768 1.6-.754.373-1.625.56-2.613.56H1.08V3.9zm4.03 7.37c.9 0 1.634-.25 2.17-.754.546-.51.82-1.2.82-2.067s-.273-1.55-.82-2.054c-.537-.51-1.26-.767-2.17-.767H3.185v5.642H5.11zM18.527 9.53a22 22 0 0 1-.039.546h-5.29c.095.433.32.776.676 1.027s.797.377 1.326.377c.364 0 .685-.052.962-.156.286-.113.55-.286.793-.52l1.08 1.17c-.66.754-1.62 1.13-2.886 1.13-.79 0-1.486-.152-2.093-.455-.607-.312-1.075-.74-1.404-1.287s-.494-1.166-.494-1.86c0-.685.16-1.3.48-1.846.33-.555.776-.984 1.34-1.287.572-.312 1.21-.468 1.91-.468.685 0 1.304.147 1.86.442a3.17 3.17 0 0 1 1.3 1.274c.32.546.48 1.183.48 1.91zM14.9 7.436c-.46 0-.845.13-1.157.4s-.503.615-.572 1.066h3.445c-.07-.442-.26-.793-.572-1.053-.312-.27-.693-.403-1.144-.403zm.52-4.2h2.184L15.25 5.11h-1.586l1.755-1.872zm6.394 3.692a2.26 2.26 0 0 1 .975-.767c.416-.173.893-.26 1.43-.26v1.872l-.455-.026c-.58 0-1.036.165-1.365.494-.33.32-.494.806-.494 1.456V13h-2.028V6.006h1.937v.923zm6.875 6.175c-.737 0-1.4-.152-1.99-.455-.58-.312-1.036-.74-1.365-1.287s-.494-1.166-.494-1.86.165-1.313.494-1.86.784-.97 1.365-1.274c.59-.312 1.252-.468 1.99-.468s1.395.156 1.976.468c.58.303 1.036.728 1.365 1.274s.494 1.166.494 1.86-.165 1.313-.494 1.86-.784.975-1.365 1.287c-.58.303-1.24.455-1.976.455zm0-1.664c.52 0 .945-.173 1.274-.52.338-.355.507-.828.507-1.417s-.17-1.057-.507-1.404c-.33-.355-.754-.533-1.274-.533s-.95.178-1.287.533c-.338.347-.507.815-.507 1.404s.17 1.062.507 1.417c.338.347.767.52 1.287.52zm12.236-5.434V13h-1.924v-.832a2.76 2.76 0 0 1-.962.702 3.1 3.1 0 0 1-1.209.234c-.92 0-1.647-.264-2.184-.793s-.806-1.313-.806-2.353V6.006h2.028V9.66c0 1.127.472 1.7 1.417 1.7.485 0 .875-.156 1.17-.468.295-.32.442-.793.442-1.417V6.006h2.028zm1.88-2.652h2.028V13h-2.028V3.354zm10.76 6.175a22 22 0 0 1-.039.546h-5.29c.095.433.32.776.676 1.027s.797.377 1.326.377c.364 0 .685-.052.962-.156.286-.113.55-.286.793-.52l1.08 1.17c-.66.754-1.62 1.13-2.886 1.13-.79 0-1.486-.152-2.093-.455-.607-.312-1.075-.74-1.404-1.287s-.494-1.166-.494-1.86c0-.685.16-1.3.48-1.846.33-.555.776-.984 1.34-1.287.572-.312 1.21-.468 1.91-.468.685 0 1.304.147 1.86.442a3.17 3.17 0 0 1 1.3 1.274c.32.546.48 1.183.48 1.91zM49.94 7.436c-.46 0-.845.13-1.157.4s-.503.615-.572 1.066h3.445c-.07-.442-.26-.793-.572-1.053-.312-.27-.693-.403-1.144-.403zm6.914-.507a2.26 2.26 0 0 1 .975-.767c.416-.173.893-.26 1.43-.26v1.872l-.455-.026c-.58 0-1.036.165-1.365.494-.33.32-.494.806-.494 1.456V13h-2.028V6.006h1.937v.923z" fill="#00c2cb"/><path d="M72.885 7.25l-3.017 4.185L66.85 7.25h6.034z" stroke="#00c2cb" stroke-width="3"/></svg>
